X: 31
P: No. XXXI.
M: 3/4
L: 1/8
Q: "Slow"
K: D
V: 1
[|\
d3 cBc | d2 D4 | d3e {de}f2 | (f<d) B4 |\
V: 2 clef=bass middle=d
[|\
d2a2d'2 | b2a2g2 | f2b2g2 | a2A4 |\
f2a2d'2 | b6 | d4d2 | A2a2g2 |
f2d2g2 | f4z2 | f2e2d2 | G4g2 |\
f2a2d'2 | b6 | d4d2 | A4z2 |]

